Papirus-nordic/48x48/places/folder-red-github.svg

<svg xmlns="http://www.w3.org/2000/svg" width="48" height="48" version="1">
 <rect style="opacity:0.2" width="40" height="26" x="4" y="17" rx="2" ry="2"/>
 <path style="fill:#ae4f58" d="M 4,34 C 4,35.108 4.892,36 6,36 H 42 C 43.108,36 44,35.108 44,34 V 12 C 44,10.892 43.108,10 42,10 H 22 V 8 C 22,6.892 21.108,6 20,6 H 6 C 4.892,6 4,6.892 4,8"/>
 <rect style="opacity:0.2" width="40" height="26" x="4" y="15" rx="2" ry="2"/>
 <rect style="fill:#e4e4e4" width="36" height="16" x="6" y="13" rx="2" ry="2"/>
 <rect style="fill:#bf616a" width="40" height="26" x="4" y="16" rx="2" ry="2"/>
 <path style="opacity:0.1;fill:#ffffff" d="M 6,6 C 4.892,6 4,6.892 4,8 V 9 C 4,7.892 4.892,7 6,7 H 20 C 21.108,7 22,7.892 22,9 V 8 C 22,6.892 21.108,6 20,6 Z M 22,10 V 11 H 42 C 43.108,11 44,11.892 44,13 V 12 C 44,10.892 43.108,10 42,10 Z"/>
 <path style="fill:#974a4d" d="m 24,21 c -4.432,0 -8,3.568 -8,8 0,3.572969 2.319953,6.580128 5.541016,7.613281 v -1.662109 c -2.02505,0.44688 -2.451172,-0.890625 -2.451172,-0.890625 -0.33119,-0.85462 -0.808594,-1.082031 -0.808594,-1.082031 -0.66103,-0.45857 0.04883,-0.451172 0.04883,-0.451172 0.73072,0.05219 1.115234,0.763672 1.115234,0.763672 0.649401,1.13032 1.704391,0.804594 2.119141,0.615234 0.06615,-0.47773 0.255071,-0.805404 0.462891,-0.990234 -1.6165,-0.1867 -3.017578,-1.220416 -3.017578,-4.055016 0,-0.807401 0.586534,-1.867737 1.052234,-2.384438 -0.0751,-0.1871 -0.326088,-1.339321 0.07031,-2.357421 0,0 0.03819,-0.01202 0.117188,-0.01563 0.2369,-0.0111 0.7698,0.43835 1.8125,1.15625 0.629544,-0.180863 1.435033,-0.265432 1.938,-0.269532 0.567132,-0.0047 1.223838,0.09289 1.815614,0.269532 1.043,-0.7179 1.709313,-1.169203 1.945313,-1.158204 h 0.002 c 0.0789,0.0037 0.117187,0.01563 0.117188,0.01563 0.39732,1.01806 0.146905,2.172275 0.07227,2.359374 C 28.418904,26.993362 29,28.053598 29,28.861 c 0,2.84182 -1.700866,3.866146 -3.322266,4.049156 0.261006,0.2284 0.326172,0.681284 0.326172,1.371094 0,0.83312 -0.0021,1.37464 -0.0039,1.71875 v 0.740234 C 29.456574,35.855553 32,32.739916 32,29 32,24.568 28.432,21 24,21 Z"/>
</svg>

<svg xmlns="http://www.w3.org/2000/svg" width="48" height="48" version="1"><rect width="40" height="26" x="4" y="17" rx="2" ry="2" opacity=".2"/><path d="M4 34c0 1.108.892 2 2 2h36c1.108 0 2-.892 2-2V12c0-1.108-.892-2-2-2H22V8c0-1.108-.892-2-2-2H6c-1.108 0-2 .892-2 2" fill="#ae4f58"/><rect width="40" height="26" x="4" y="15" rx="2" ry="2" opacity=".2"/><rect width="36" height="16" x="6" y="13" rx="2" ry="2" fill="#e4e4e4"/><rect width="40" height="26" x="4" y="16" rx="2" ry="2" fill="#bf616a"/><path d="M6 6c-1.108 0-2 .892-2 2v1c0-1.108.892-2 2-2h14c1.108 0 2 .892 2 2V8c0-1.108-.892-2-2-2zm16 4v1h20c1.108 0 2 .892 2 2v-1c0-1.108-.892-2-2-2z" opacity=".1" fill="#fff"/><path d="M24 21c-4.432 0-8 3.568-8 8 0 3.573 2.32 6.58 5.541 7.613v-1.662c-2.025.447-2.451-.89-2.451-.89-.331-.855-.809-1.082-.809-1.082-.66-.46.05-.452.05-.452.73.053 1.114.764 1.114.764.65 1.13 1.705.805 2.12.615.066-.477.255-.805.462-.99-1.616-.187-3.017-1.22-3.017-4.055 0-.807.586-1.868 1.052-2.384-.075-.188-.326-1.34.07-2.358 0 0 .039-.012.117-.015.237-.012.77.438 1.813 1.156A8.098 8.098 0 0 1 24 24.99a6.42 6.42 0 0 1 1.816.27c1.043-.718 1.709-1.17 1.945-1.158h.002c.079.003.117.015.117.015.397 1.018.147 2.172.072 2.36.467.516 1.048 1.577 1.048 2.384 0 2.842-1.7 3.866-3.322 4.05.26.228.326.68.326 1.37 0 .833-.002 1.375-.004 1.719v.74c3.457-.884 6-4 6-7.74 0-4.432-3.568-8-8-8z" fill="#974a4d"/></svg>
